X: 241
T: the Charming Fair Maid
R: air, waltz
%S: s:3 b:18(7+5+6)
B: O'Neill's 1850 #241
O: J.O'Neill
Z: 1997 by John Chambers <jc@trillian.mit.edu>
N: Both parts have 9 bars.
Q: "Slow"
M: 3/4
L: 1/8
K: D
z2 z2 dc | A2 A2 Bc | d4 de | f4 ed | e2 d4 | f4 gf | e4 a2 |
| d2 c2 d2 | e2 d4 |]| ed d2 (cB/A/) | AB c2 z2 | ed dc BA |
| AG F2 DE | C4 DE | F4 AG | E4 GE | D2 C2 D2 | E2 D4 |]
